X: 34066
T: Reel De Mattawa
R: reel
M: 4/4
K: Edorian
|:ef|gefd ecdB|ABAF D2FD|EFGA B2ef|gfed A2ef|
gefd ecdB|ABAF D2FD|EFGA B2AG|1 FAGF E2:|2 FAGF E2 E2||
|:BA|B2 eB gBeB|B/B/B eB gBeB|d2 fd gdfd|Adfd gAfA|
B2 eB gBeB|B/B/B eB gBeB|f2fg fedc|1 BcdB e2 BA:|2 BcdB e2||

